img/svg/text.svg

<?xml version="1.0" encoding="utf-8"?><!DOCTYPE svg PUBLIC "-//W3C//DTD SVG 1.1//EN" "http://www.w3.org/Graphics/SVG/1.1/DTD/svg11.dtd"><svg version="1.1" baseProfile="full" xmlns="http://www.w3.org/2000/svg" xmlns:xlink="http://www.w3.org/1999/xlink" xmlns:ev="http://www.w3.org/2001/xml-events"   height="17px"   width="14px" ><path opacity="0.302" fill="rgb( 0, 89, 158 )" d="M13.931,3.73799999999983 C13.931,3.73799999999983 13.931,15.067 13.931,15.067 C13.931,15.067 13.931,15.067 13.931,15.067 C13.931,16.114 13.075,16.9630000000002 12.019,16.9630000000002 C12.019,16.9630000000002 1.91200000000003,16.9630000000002 1.91200000000003,16.9630000000002 C0.85599999999999,16.9630000000002 0,16.114 0,15.067 C0,15.067 0,1.91199999999981 0,1.91199999999981 C0,0.86499999999978 0.85599999999999,0.01600000000008 1.91200000000003,0.01600000000008 C1.91200000000003,0.01600000000008 10.421,0.01600000000008 10.421,0.01600000000008 C10.448,0.01200000000017 10.472,0 10.5,0 C10.528,0 10.552,0.01200000000017 10.579,0.01600000000008 C10.579,0.01600000000008 10.836,0.01600000000008 10.836,0.01600000000008 C11.8920000000001,0.01600000000008 13.931,2.07900000000018 13.931,3.1260000000002 C13.931,3.1260000000002 13.931,3.26200000000017 13.931,3.26200000000017 C13.971,3.33399999999983 14,3.41199999999981 14,3.5 C14,3.58800000000019 13.971,3.66600000000017 13.931,3.73799999999983 ZM13.023,2.99600000000009 C13.023,2.54399999999987 11.471,0.96300000000019 11.015,0.96300000000019 C11.015,0.96300000000019 11,0.96300000000019 11,0.96300000000019 C11,0.96300000000019 11,3 11,3 C11,3 13.023,3 13.023,3 C13.023,3 13.023,2.99600000000009 13.023,2.99600000000009 ZM13.023,4 C13.023,4 10.5,4 10.5,4 C10.224,4 10,3.77599999999984 10,3.5 C10,3.5 10,0.96300000000019 10,0.96300000000019 C10,0.96300000000019 1.80399999999997,0.96300000000019 1.80399999999997,0.96300000000019 C1.34799999999996,0.96300000000019 0.97900000000004,1.32999999999993 0.97900000000004,1.78200000000015 C0.97900000000004,1.78200000000015 0.97900000000004,15.1439999999998 0.97900000000004,15.1439999999998 C0.97900000000004,15.596 1.34799999999996,15.9630000000002 1.80399999999997,15.9630000000002 C1.80399999999997,15.9630000000002 12.198,15.9630000000002 12.198,15.9630000000002 C12.654,15.9630000000002 13.024,15.596 13.024,15.1439999999998 C13.024,15.1439999999998 13.023,4 13.023,4 ZM10.5,12 C10.5,12 3.5,12 3.5,12 C3.22400000000005,12 3,11.7759999999998 3,11.5 C3,11.2240000000002 3.22400000000005,11 3.5,11 C3.5,11 10.5,11 10.5,11 C10.776,11 11,11.2240000000002 11,11.5 C11,11.7759999999998 10.776,12 10.5,12 ZM10.5,10 C10.5,10 3.5,10 3.5,10 C3.22400000000005,10 3,9.77599999999984 3,9.5 C3,9.22400000000016 3.22400000000005,9 3.5,9 C3.5,9 10.5,9 10.5,9 C10.776,9 11,9.22400000000016 11,9.5 C11,9.77599999999984 10.776,10 10.5,10 ZM10.5,8 C10.5,8 3.5,8 3.5,8 C3.22400000000005,8 3,7.77599999999984 3,7.5 C3,7.22400000000016 3.22400000000005,7 3.5,7 C3.5,7 10.5,7 10.5,7 C10.776,7 11,7.22400000000016 11,7.5 C11,7.77599999999984 10.776,8 10.5,8 ZM8.5,6 C8.5,6 3.5,6 3.5,6 C3.22400000000005,6 3,5.77599999999984 3,5.5 C3,5.22400000000016 3.22400000000005,5 3.5,5 C3.5,5 8.5,5 8.5,5 C8.77599999999995,5 9,5.22400000000016 9,5.5 C9,5.77599999999984 8.77599999999995,6 8.5,6 Z "/></svg>

<svg baseProfile="full" xmlns="http://www.w3.org/2000/svg" height="17" width="14"><path opacity=".302" fill="rgb( 0, 89, 158 )" d="M13.931 3.738v11.329c0 1.047-.856 1.896-1.912 1.896h-10.107c-1.056 0-1.912-.849-1.912-1.896v-13.155c0-1.047.856-1.896 1.912-1.896h8.509l.079-.016.079.016h.257c1.056 0 3.095 2.063 3.095 3.11v.136c.04.072.069.15.069.238l-.069.238zm-.908-.742c0-.452-1.552-2.033-2.008-2.033h-.015v2.037h2.023v-.004zm0 1.004h-2.523c-.276 0-.5-.224-.5-.5v-2.537h-8.196c-.456 0-.825.367-.825.819v13.362c0 .452.369.819.825.819h10.394c.456 0 .826-.367.826-.819l-.001-11.144zm-2.523 8h-7c-.276 0-.5-.224-.5-.5s.224-.5.5-.5h7c.276 0 .5.224.5.5s-.224.5-.5.5zm0-2h-7c-.276 0-.5-.224-.5-.5s.224-.5.5-.5h7c.276 0 .5.224.5.5s-.224.5-.5.5zm0-2h-7c-.276 0-.5-.224-.5-.5s.224-.5.5-.5h7c.276 0 .5.224.5.5s-.224.5-.5.5zm-2-2h-5c-.276 0-.5-.224-.5-.5s.224-.5.5-.5h5c.276 0 .5.224.5.5s-.224.5-.5.5z"/></svg>
